packages/foundations/icons/Health/SocialDistance.svg

<svg width="24" height="24" viewBox="0 0 24 24" fill="none" xmlns="http://www.w3.org/2000/svg">
<path fill-rule="evenodd" clip-rule="evenodd" d="M5.5 7.5C6.32843 7.5 7 6.82843 7 6C7 5.17157 6.32843 4.5 5.5 4.5C4.67157 4.5 4 5.17157 4 6C4 6.82843 4.67157 7.5 5.5 7.5Z" fill="#3D474D"/>
<path fill-rule="evenodd" clip-rule="evenodd" d="M18.5 7.5C19.3284 7.5 20 6.82843 20 6C20 5.17157 19.3284 4.5 18.5 4.5C17.6716 4.5 17 5.17157 17 6C17 6.82843 17.6716 7.5 18.5 7.5Z" fill="#3D474D"/>
<path fill-rule="evenodd" clip-rule="evenodd" d="M10.3402 8.99179L8.00413 9.42048L7.49919 19.1406L6.50052 19.1403L6.08324 10.9992L5.24685 19.1557L4.251 19.1439L3.53175 10.0058L0.693817 9.48979L0.756968 8.49854L10.2237 8.00069L10.3402 8.99179ZM4.74946 19.1047L5.813 8.733L0.78326 8.99785L4 9.58271L4.74946 19.1047ZM5.25603 9.26302L4.81494 13.5645L4.4796 9.30391L5.25603 9.26302Z" fill="#3D474D"/>
<path fill-rule="evenodd" clip-rule="evenodd" d="M5.813 8.733L4.74946 19.1047L4 9.58271L0.78326 8.99785L5.813 8.733ZM4.81494 13.5645L5.25603 9.26302L4.4796 9.30391L4.81494 13.5645Z" fill="#3D474D"/>
<path fill-rule="evenodd" clip-rule="evenodd" d="M23.3402 8.99179L21.0041 9.42048L20.4992 19.1406L19.5005 19.1403L19.0832 10.9992L18.2469 19.1557L17.251 19.1439L16.5318 10.0058L13.6938 9.48979L13.757 8.49854L23.2237 8.00069L23.3402 8.99179ZM17.7495 19.1047L18.813 8.733L13.7833 8.99785L17 9.58271L17.7495 19.1047ZM18.256 9.26302L17.8149 13.5645L17.4796 9.30391L18.256 9.26302Z" fill="#3D474D"/>
<path fill-rule="evenodd" clip-rule="evenodd" d="M18.813 8.733L17.7495 19.1047L17 9.58271L13.7833 8.99785L18.813 8.733ZM17.8149 13.5645L18.256 9.26302L17.4796 9.30391L17.8149 13.5645Z" fill="#3D474D"/>
</svg>

<svg xmlns="http://www.w3.org/2000/svg" fill="none" viewBox="0 0 24 24" width="100%" height="100%">
  <path fill="#3D474D" fill-rule="evenodd" d="M5.5 7.5a1.5 1.5 0 1 0 0-3 1.5 1.5 0 0 0 0 3Zm13 0a1.5 1.5 0 1 0 0-3 1.5 1.5 0 0 0 0 3Zm-8.16 1.492-2.336.428-.505 9.72h-.998L6.083 11l-.836 8.156-.996-.012-.72-9.138L.695 9.49l.063-.991L10.224 8l.116.99ZM4.75 19.105 5.812 8.733l-5.03.265L4 9.583l.75 9.522Zm.506-9.842-.441 4.302-.335-4.261.776-.041Z" clip-rule="evenodd"/>
  <path fill="#3D474D" fill-rule="evenodd" d="M5.813 8.733 4.749 19.105 4 9.583.783 8.998l5.03-.265Zm-.998 4.832.441-4.302-.776.04.335 4.261ZM23.34 8.992l-2.336.428-.505 9.72h-.998L19.082 11l-.836 8.156-.996-.012-.72-9.138-2.837-.516.063-.991L23.224 8l.116.99Zm-5.59 10.113 1.063-10.372-5.03.265L17 9.583l.75 9.522Zm.506-9.842-.441 4.302-.335-4.261.776-.041Z" clip-rule="evenodd"/>
  <path fill="#3D474D" fill-rule="evenodd" d="M18.813 8.733 17.75 19.105 17 9.583l-3.217-.585 5.03-.265Zm-.998 4.832.441-4.302-.776.04.335 4.261Z" clip-rule="evenodd"/>
</svg>
